!!!COM: Anon.
!!!OTL: Acorda mama~ezinha
!!!OTL: Romanceiro Folclorico do Brasil
!!!CNT: Brasil
!!!OCY: Brasil
!!!ODT: <1971///
!!!PSR: Irmaos Vitale
!!!PSP: Sao Paulo, Brasil
!!!PDT: 1947///
!!!PPE: Rossini Tavares de Lima
!!!PPG: page 52
!! Romance: Cego Ou Ceguinho
!! Place: Lins, Sao Paulo, Brasil
**kern
*clefG2
*k[b-e-a-]
*M3/4
*MM96
=1-
4.c
8d
8e-
8f
=
4g
4.cc
8bn
=
4dd
4.cc
8b-
=
4a-
2g
=
2.r
=
2g
4g
=
4.g
8g
8b-
8a-
=
4a-
4.g
8d
=
4g
4.d
8e-
=
4d
2c
==
*-
